X: 42958
T: Willie Clancy's
R: reel
M: 4/4
K: Adorian
EAAB c3A|BG G2 BGAG|EAAB cBcd|(3ege dB cAAG|
EAAB cBcd|BG G2 BGAG|EAAB cBcd|(3ege dB A4:|
eaa2 aged|(3B^cd ef g2fg|eaa2 agef|g2ed BAA2|
eaa2 aged|(3B^cd ef g2fg|(3agf ge (3fed ef|(3gfe dBBA A2:|

